X:14
T:Koce Berberot                 %titel
C:Macedonia                           %origin
%P:Volgorde: Intro + 4x(ABC) + AB
M:2/4                           % type of bar  4/4 or 3/4
L:1/16                        % length of shortest note
Q:1/4=96                           %tempo  Q:1/4=80
P:I(ABC)4AB
%P:Volgorde: Intro + 4x(ABC) + AB
K:Am
%MIDI gchord fzcz
%P:Intro
P:I
"Am"eaea agfe| "Dm"dcBc "Am"A4|"G"GcBc dBcd |"E7"fdef "Am"e4|
"Am"eaea agfe| "Dm"decB "Am"A4| "G"GcBc dBcd| "E7"BcBc  "Am"A2z2||
P:A
"Am"a2 z2 e2 z2|(ed)(cB) A2 z2| "G".G2.c2 .B2.c2| "E7"d6z2|
"Am"a2 z2 e2 z2|(ed)(cB) A2 z2| "G".G2.c2 .B2.c2| "Am"A6z2||
P:B
"Am".e2.e2 .e2.e2|(ed)(cB) A4| "G".G2.c2 .B2.c2| "E7" d6 z2|
"Am".e2.e2 .e2.e2|(ed)(cB) A4| "G ".G2.c2 "E7".B2.c2| "Am" A6 z2||
P:C
"Cm"GcGc cBAG|"Dm"dcBc "Am"A4| "G"GcBc dBcd| "E7"fdef  "Am"e4|
"Am"eaea agfe | "Dm"decB "Am"A4| "G"GcBc dBcd| "E7"BcBc "Am"A2 z2||

